br-collection.svg

<?xml version="1.0" encoding="UTF-8" standalone="no"?>
<!-- Created with Inkscape (http://www.inkscape.org/) -->

<svg
   width="210mm"
   height="297mm"
   viewBox="0 0 210 297"
   version="1.1"
   id="svg1"
   xml:space="preserve"
   sodipodi:docname="br-collection.svg"
   inkscape:version="1.3.1 (91b66b0783, 2023-11-16)"
   xmlns:inkscape="http://www.inkscape.org/namespaces/inkscape"
   xmlns:sodipodi="http://sodipodi.sourceforge.net/DTD/sodipodi-0.dtd"
   xmlns="http://www.w3.org/2000/svg"
   xmlns:svg="http://www.w3.org/2000/svg"><sodipodi:namedview
     id="namedview1"
     pagecolor="#ffffff"
     bordercolor="#666666"
     borderopacity="1.0"
     inkscape:showpageshadow="2"
     inkscape:pageopacity="0.0"
     inkscape:pagecheckerboard="0"
     inkscape:deskcolor="#d1d1d1"
     inkscape:document-units="mm"
     inkscape:zoom="2.9184343"
     inkscape:cx="382.05417"
     inkscape:cy="363.37977"
     inkscape:window-width="1920"
     inkscape:window-height="1057"
     inkscape:window-x="-8"
     inkscape:window-y="-8"
     inkscape:window-maximized="1"
     inkscape:current-layer="layer1" /><defs
     id="defs1" /><g
     inkscape:label="Ebene 1"
     inkscape:groupmode="layer"
     id="layer1"><path
       style="fill:#000000;stroke-width:0.443736"
       d="m 145.07365,111.91187 c -5.62564,-0.15484 -7.99861,-0.79497 -10.06732,-2.71575 -0.98624,-0.91571 -1.59212,-1.68551 -2.47646,-3.14644 -0.84464,-1.39536 -2.91629,-5.17721 -2.91629,-5.32376 0,-0.0373 -0.50312,-1.011641 -1.56757,-3.035831 -0.2989,-0.56839 -0.54345,-1.05699 -0.54345,-1.08577 0,-0.0288 -0.33528,-0.68172 -0.74506,-1.45096 -0.40979,-0.76925 -0.74507,-1.417 -0.74507,-1.43944 0,-0.11681 -1.60127,-3.01748 -1.69288,-3.06662 -0.0592,-0.0318 -2.9236,-0.0258 -6.36527,0.0132 -5.37979,0.061 -6.27159,0.0943 -6.35737,0.23742 -0.0549,0.0916 -0.30461,0.96572 -0.55496,1.94253 -1.16077,4.52913 -1.94217,6.79353 -3.02605,8.769171 -2.21547,4.03825 -6.04529,6.63293 -11.930202,8.08264 -1.389966,0.34241 -4.720597,0.87844 -6.829753,1.09918 -2.029867,0.21244 -3.059116,0.23063 -15.615297,0.27602 l -13.442195,0.0486 v -0.23104 c 0,-0.26089 0.350299,-1.7391 0.803883,-3.39226 0.294113,-1.07195 0.619049,-2.32151 0.995846,-3.82958 0.09915,-0.39683 0.348322,-1.37087 0.553715,-2.16454 0.205393,-0.79366 0.570323,-2.267221 0.810956,-3.274561 0.240633,-1.00735 0.492256,-2.03134 0.559162,-2.27555 0.06691,-0.2442 0.32094,-1.26819 0.564519,-2.27554 0.431479,-1.78442 0.908297,-3.70242 1.255589,-5.0506 0.09436,-0.3663 0.260276,-1.04064 0.3687,-1.49852 0.470912,-1.9887 0.878199,-3.68153 0.98146,-4.07933 l 0.06483,-0.24976 h 9.736568 c 10.246952,0 10.821355,-0.0232 12.72089,-0.51484 3.911938,-1.0124 6.288908,-3.09504 6.814664,-5.97085 0.179729,-0.98309 0.17927,-1.15804 -0.0055,-2.08978 -0.499948,-2.52132 -2.220544,-4.17549 -5.182998,-4.98292 -0.928708,-0.25312 -0.935585,-0.2533 -10.770354,-0.29006 -7.884156,-0.0295 -9.841052,-0.065 -9.841052,-0.17866 0,-0.078 0.193038,-0.83754 0.428972,-1.6878 0.450402,-1.62315 0.812174,-2.99856 1.072183,-4.07629 0.08536,-0.35383 0.208286,-0.67265 0.27316,-0.70849 0.248943,-0.13753 15.395872,-0.17588 17.41108,-0.0441 2.891081,0.18908 4.958649,0.63737 7.217685,1.56493 4.019829,1.65053 6.607639,4.80214 7.134739,8.68913 0.28349,2.09057 -0.0768,3.94551 -1.19104,6.13194 -0.62505,1.22654 -2.81288,3.56761 -4.050648,4.33437 -0.505967,0.31343 -0.52525,0.48941 -0.05363,0.48941 0.561442,0 2.070868,0.62391 3.370738,1.39327 0.90609,0.5363 1.9479,1.41078 2.46133,2.06604 0.10596,0.13523 0.2152,0.22391 0.24275,0.19707 0.0275,-0.0269 0.13394,-0.37349 0.23642,-0.77032 0.10248,-0.39683 0.49207,-1.79546 0.86577,-3.10806 0.6573,-2.3088 0.95642,-3.4176 1.41904,-5.26032 l 0.21986,-0.87573 2.54989,-1.10398 c 1.40244,-0.60718 3.38023,-1.47723 4.39509,-1.93343 1.01485,-0.45621 1.86709,-0.80989 1.89385,-0.78596 0.0524,0.0468 0.0369,0.10793 -1.05926,4.18731 -1.66296,6.18838 -1.87263,6.97651 -1.87263,7.03887 0,0.10938 12.15289,0.0688 13.35665,-0.0446 1.99606,-0.18805 3.72754,-0.69989 5.07781,-1.50106 2.86781,-1.70158 4.20573,-4.08383 4.007,-7.13472 -0.10466,-1.6068 -0.54537,-2.75753 -1.45409,-3.79672 -1.3333,-1.52473 -2.61388,-2.22102 -5.15476,-2.80281 -0.9483,-0.21713 -1.42073,-0.22963 -10.39985,-0.27532 -8.07447,-0.0411 -9.40644,-0.0705 -9.40644,-0.20752 0,-0.0878 0.0819,-0.44612 0.18199,-0.79624 0.10009,-0.35013 0.38013,-1.41083 0.62231,-2.35712 0.24218,-0.94629 0.53747,-2.09517 0.65621,-2.55305 l 0.21589,-0.83252 h 5.96051 c 8.4217,0 11.96455,0.0988 13.65951,0.38092 7.19959,1.19836 11.85178,5.19244 12.92448,11.09617 0.37628,2.07085 0.11439,4.80384 -0.63928,6.67152 -1.24366,3.0819 -2.88363,5.08717 -5.74673,7.02678 -1.04852,0.71032 -3.4097,1.81038 -4.59514,2.14085 -0.41884,0.11676 -0.7618,0.26225 -0.76212,0.3233 -3.3e-4,0.061 0.10118,0.26085 0.22559,0.444 0.91752,1.3508 4.26171,7.21555 7.34228,12.876251 2.01791,3.70802 2.47675,4.49175 3.21691,5.49461 0.94665,1.28266 2.05361,2.21416 3.25757,2.74125 0.53056,0.23227 0.96845,0.45977 0.97311,0.50556 0.005,0.0458 -0.20108,0.073 -0.4572,0.0604 -0.25612,-0.0126 -0.96859,-0.0367 -1.58326,-0.0536 z m -56.50068,-7.7404 c 3.517287,-0.449 5.707198,-1.33518 7.700415,-3.11609 1.242761,-1.110381 1.668056,-1.734701 2.30686,-3.386371 0.3882,-1.00372 0.408229,-1.13473 0.415734,-2.71955 0.0064,-1.346 -0.03543,-1.7712 -0.218143,-2.21912 -0.583078,-1.42938 -1.465537,-2.45735 -2.803366,-3.26563 -1.135865,-0.68625 -2.148306,-1.03389 -4.106559,-1.41005 -0.986143,-0.18943 -1.029153,-0.18853 -2.150604,0.045 -0.629385,0.13105 -1.423736,0.295 -1.765223,0.36433 -0.403254,0.0819 -3.045477,0.14544 -7.53802,0.18134 l -6.917133,0.0553 -0.181122,0.51588 c -0.177471,0.50549 -0.352927,1.17731 -0.772505,2.95793 -0.115086,0.48841 -0.372916,1.5124 -0.572954,2.27554 -0.200038,0.76314 -0.586112,2.31162 -0.857942,3.44107 -0.27183,1.12945 -0.628676,2.553051 -0.792992,3.163561 -0.668189,2.48265 -0.807664,3.03509 -0.807664,3.19909 0,0.15361 0.925603,0.16834 8.785545,0.13986 7.500352,-0.0272 9.003529,-0.0597 10.275673,-0.22206 z"
       id="path1" /><text
       xml:space="preserve"
       style="font-style:normal;font-weight:normal;font-size:13.6129px;line-height:1.25;font-family:sans-serif;letter-spacing:0px;word-spacing:0px;fill:#000000;fill-opacity:1;stroke:none;stroke-width:0.340324"
       x="54.289143"
       y="133.64543"
       id="text1"
       transform="scale(1.084107,0.92241816)"><tspan
         sodipodi:role="line"
         id="tspan1"
         x="54.289143"
         y="133.64543"
         style="stroke-width:0.340324">COLLECTION</tspan></text></g></svg>

<svg version="1.1" xmlns="http://www.w3.org/2000/svg" xmlns:xlink="http://www.w3.org/1999/xlink" xmlns:ev="http://www.w3.org/2001/xml-events" xmlns:meerk40t="https://github.com/meerk40t/meerk40t/wiki/Namespace" width="320.0mm" height="200.0mm" viewBox="0 0 825637 516023" xmlns:inkscape="http://www.inkscape.org/namespaces/inkscape">
	<g type="op engrave" speed="35.0" color="blue" frequency="30.0" id="meerk40t:3" allowed_attributes="['stroke']" power="300" dwell_time="50.0" dangerous="False" lock="False" output="False" />
	<g type="op raster" speed="250.0" dpi="300" color="black" frequency="30.0" id="meerk40t:74" stopop="False" allowed_attributes="[]" power="500" dwell_time="50.0" raster_preference_top="False" output="False" dangerous="False" use_grayscale="True" consider_laserspot="False" lock="False" />
	<g type="op raster" speed="250.0" dpi="500" color="black" frequency="30.0" stopop="False" allowed_attributes="[]" power="500.0" dwell_time="50.0" raster_preference_top="False" dangerous="False" use_grayscale="True" consider_laserspot="False" id="meerk40t:15" lock="False" references="tspan1 path1" />
	<g inkscape:label="Brillenparkplatz.dxf" label_display="False">
		<g inkscape:label="Group" label_display="False">
			<g inkscape:label="Group" label_display="False" />
		</g>
	</g>
	<g inkscape:label="Ebene 1" label_display="False">
		<path d="M 145.07365,111.91187 C 139.44801,111.75703 137.07504,111.1169 135.00633,109.19612 C 134.02009,108.28041 133.41421,107.51061 132.52987,106.04968 C 131.68523,104.65432 129.61358,100.87247 129.61358,100.72592 C 129.61358,100.68862 129.11046,99.714279 128.04601,97.690089 C 127.74711,97.121699 127.50256,96.633099 127.50256,96.604319 C 127.50256,96.575519 127.16728,95.922599 126.7575,95.153359 C 126.34771,94.384109 126.01243,93.736359 126.01243,93.713919 C 126.01243,93.597109 124.41116,90.696439 124.31955,90.647299 C 124.26035,90.615499 121.39595,90.621499 117.95428,90.660499 C 112.57449,90.721499 111.68269,90.754799 111.59691,90.897919 C 111.54201,90.989519 111.2923,91.863639 111.04195,92.840449 C 109.88118,97.369579 109.09978,99.633979 108.0159,101.60962 C 105.80043,105.64787 101.97061,108.24255 96.085698,109.69226 C 94.695732,110.03467 91.365101,110.5707 89.255945,110.79144 C 87.226078,111.00388 86.196829,111.02207 73.640648,111.06746 L 60.198453,111.11606 L 60.198453,110.88502 C 60.198453,110.62413 60.548752,109.14592 61.002336,107.49276 C 61.296449,106.42081 61.621385,105.17125 61.998182,103.66318 C 62.097332,103.26635 62.346504,102.29231 62.551897,101.49864 C 62.75729,100.70498 63.12222,99.231419 63.362853,98.224079 C 63.603486,97.216729 63.855109,96.192739 63.922015,95.948529 C 63.988925,95.704329 64.242955,94.680339 64.486534,93.672989 C 64.918013,91.888569 65.394831,89.970569 65.742123,88.622389 C 65.836483,88.256089 66.002399,87.581749 66.110823,87.123869 C 66.581735,85.135169 66.989022,83.442339 67.092283,83.044539 L 67.157113,82.794779 L 76.893681,82.794779 C 87.140633,82.794779 87.715036,82.771579 89.614571,82.279939 C 93.526509,81.267539 95.903479,79.184899 96.429235,76.309089 C 96.608964,75.325999 96.608505,75.151049 96.423735,74.219309 C 95.923787,71.697989 94.203191,70.043819 91.240737,69.236389 C 90.312029,68.983269 90.305152,68.983089 80.470383,68.946329 C 72.586227,68.916829 70.629331,68.881329 70.629331,68.767669 C 70.629331,68.689669 70.822369,67.930129 71.058303,67.079869 C 71.508705,65.456719 71.870477,64.081309 72.130486,63.003579 C 72.215846,62.649749 72.338772,62.330929 72.403646,62.295089 C 72.652589,62.157559 87.799518,62.119209 89.814726,62.250989 C 92.705807,62.440069 94.773375,62.888359 97.032411,63.815919 C 101.05224,65.466449 103.64005,68.618059 104.16715,72.505049 C 104.45064,74.595619 104.09035,76.450559 102.97611,78.636989 C 102.35106,79.863529 100.16323,82.204599 98.925462,82.971359 C 98.419495,83.284789 98.400212,83.460769 98.871832,83.460769 C 99.433274,83.460769 100.9427,84.084679 102.24257,84.854039 C 103.14866,85.390339 104.19047,86.264819 104.7039,86.920079 C 104.80986,87.055309 104.9191,87.143989 104.94665,87.117149 C 104.97415,87.090249 105.08059,86.743659 105.18307,86.346829 C 105.28555,85.949999 105.67514,84.551369 106.04884,83.238769 C 106.70614,80.929969 107.00526,79.821169 107.46788,77.978449 L 107.68774,77.102719 L 110.23763,75.998739 C 111.64007,75.391559 113.61786,74.521509 114.63272,74.065309 C 115.64757,73.609099 116.49981,73.255419 116.52657,73.279349 C 116.57897,73.326149 116.56347,73.387279 115.46731,77.466659 C 113.80435,83.655039 113.59468,84.443169 113.59468,84.505529 C 113.59468,84.614909 125.74757,84.574329 126.95133,84.460929 C 128.94739,84.272879 130.67887,83.761039 132.02914,82.959869 C 134.89695,81.258289 136.23487,78.876039 136.03614,75.825149 C 135.93148,74.218349 135.49077,73.067619 134.58205,72.028429 C 133.24875,70.503699 131.96817,69.807409 129.42729,69.225619 C 128.47899,69.008489 128.00656,68.995989 119.02744,68.950299 C 110.95297,68.909199 109.621,68.879799 109.621,68.742779 C 109.621,68.654979 109.7029,68.296659 109.80299,67.946539 C 109.90308,67.596409 110.18312,66.535709 110.4253,65.589419 C 110.66748,64.643129 110.96277,63.494249 111.08151,63.036369 L 111.2974,62.203849 L 117.25791,62.203849 C 125.67961,62.203849 129.22246,62.302649 130.91742,62.584769 C 138.11701,63.783129 142.7692,67.777209 143.8419,73.680939 C 144.21818,75.751789 143.95629,78.484779 143.20262,80.352459 C 141.95896,83.434359 140.31899,85.439629 137.45589,87.379239 C 136.40737,88.089559 134.04619,89.189619 132.86075,89.520089 C 132.44191,89.636849 132.09895,89.782339 132.09863,89.843389 C 132.0983,89.904389 132.19981,90.104239 132.32422,90.287389 C 133.24174,91.638189 136.58593,97.502939 139.6665,103.16364 C 141.68441,106.87166 142.14325,107.65539 142.88341,108.65825 C 143.83006,109.94091 144.93702,110.87241 146.14098,111.3995 C 146.67154,111.63177 147.10943,111.85927 147.11409,111.90506 C 147.11909,111.95086 146.91301,111.97806 146.65689,111.96546 C 146.40077,111.95286 145.6883,111.92876 145.07363,111.91186 L 145.07365,111.91187 M 88.57297,104.17147 C 92.090257,103.72247 94.280168,102.83629 96.273385,101.05538 C 97.516146,99.944999 97.941441,99.320679 98.580245,97.669009 C 98.968445,96.665289 98.988474,96.534279 98.995979,94.949459 C 99.002379,93.603459 98.960549,93.178259 98.777836,92.730339 C 98.194758,91.300959 97.312299,90.272989 95.97447,89.464709 C 94.838605,88.778459 93.826164,88.430819 91.867911,88.054659 C 90.881768,87.865229 90.838758,87.866129 89.717307,88.099659 C 89.087922,88.230709 88.293571,88.394659 87.952084,88.463989 C 87.54883,88.545889 84.906607,88.609429 80.414064,88.645329 L 73.496931,88.700629 L 73.315809,89.216509 C 73.138338,89.721999 72.962882,90.393819 72.543304,92.174439 C 72.428218,92.662849 72.170388,93.686839 71.97035,94.449979 C 71.770312,95.213119 71.384238,96.761599 71.112408,97.891049 C 70.840578,99.020499 70.483732,100.4441 70.319416,101.05461 C 69.651227,103.53726 69.511752,104.0897 69.511752,104.2537 C 69.511752,104.40731 70.437355,104.42204 78.297297,104.39356 C 85.797649,104.36636 87.300826,104.33386 88.57297,104.1715 L 88.57297,104.17147" transform="matrix(880.6223163111354, 0.0, 0.0, 880.6223163111354, 180912.60572714335, 174612.35564794388)" stroke_scale="True" mktablength="5160.23622047244" mktabpositions="" type="elem path" id="path1" lock="False" hidden="False" label_display="False" points_dirty="True" stroke-linecap="butt" stroke-linejoin="miter" fill-rule="nonzero" stroke="none" stroke-width="1.3000941343400738" fill="#000000" bounds="233924.70684635037, 229360.39158474118, 310464.6348868682, 273214.35211149027" paint_bounds="233924.70684635037, 229360.39158474118, 310464.6348868682, 273214.35211149027" />
		<text transform="matrix(906.5373247246009, 0.0, 0.0, 812.3020166666561, 232645.54047373647, 273162.48817132175)" font-family="sans-serif" font-style="normal" font-variant="normal" font-stretch="normal" font-size="10.209675" line_height="16.0" dominant-baseline="hanging" text="COLLECTION" baseline="hanging" stroke_scale="True" underline="False" strikethrough="False" overline="False" raw_bbox="(0, 3, 88, 13)" font_style="normal" font_variant="normal" font_weight="normal" font_stretch="normal" font_size="10.209675" font_family="sans-serif" offset_x="0" offset_y="0" type="elem text" id="tspan1" lock="False" hidden="False" label_display="False" bounds_with_variables_translated="False" ascent="12.323396444320679" points_dirty="True" stroke="none" stroke-width="0.000396589275929861" fill="#000000" bounds="230832.46582428727, 273974.79018798843, 314233.8996989506, 285347.0184213216" paint_bounds="230832.46582428727, 273974.79018798843, 314233.8996989506, 285347.0184213216">COLLECTION</text>
	</g>
	<g inkscape:label="Group" label_display="False">
		<path d="M 145.07365,111.91187 C 139.44801,111.75703 137.07504,111.1169 135.00633,109.19612 C 134.02009,108.28041 133.41421,107.51061 132.52987,106.04968 C 131.68523,104.65432 129.61358,100.87247 129.61358,100.72592 C 129.61358,100.68862 129.11046,99.714279 128.04601,97.690089 C 127.74711,97.121699 127.50256,96.633099 127.50256,96.604319 C 127.50256,96.575519 127.16728,95.922599 126.7575,95.153359 C 126.34771,94.384109 126.01243,93.736359 126.01243,93.713919 C 126.01243,93.597109 124.41116,90.696439 124.31955,90.647299 C 124.26035,90.615499 121.39595,90.621499 117.95428,90.660499 C 112.57449,90.721499 111.68269,90.754799 111.59691,90.897919 C 111.54201,90.989519 111.2923,91.863639 111.04195,92.840449 C 109.88118,97.369579 109.09978,99.633979 108.0159,101.60962 C 105.80043,105.64787 101.97061,108.24255 96.085698,109.69226 C 94.695732,110.03467 91.365101,110.5707 89.255945,110.79144 C 87.226078,111.00388 86.196829,111.02207 73.640648,111.06746 L 60.198453,111.11606 L 60.198453,110.88502 C 60.198453,110.62413 60.548752,109.14592 61.002336,107.49276 C 61.296449,106.42081 61.621385,105.17125 61.998182,103.66318 C 62.097332,103.26635 62.346504,102.29231 62.551897,101.49864 C 62.75729,100.70498 63.12222,99.231419 63.362853,98.224079 C 63.603486,97.216729 63.855109,96.192739 63.922015,95.948529 C 63.988925,95.704329 64.242955,94.680339 64.486534,93.672989 C 64.918013,91.888569 65.394831,89.970569 65.742123,88.622389 C 65.836483,88.256089 66.002399,87.581749 66.110823,87.123869 C 66.581735,85.135169 66.989022,83.442339 67.092283,83.044539 L 67.157113,82.794779 L 76.893681,82.794779 C 87.140633,82.794779 87.715036,82.771579 89.614571,82.279939 C 93.526509,81.267539 95.903479,79.184899 96.429235,76.309089 C 96.608964,75.325999 96.608505,75.151049 96.423735,74.219309 C 95.923787,71.697989 94.203191,70.043819 91.240737,69.236389 C 90.312029,68.983269 90.305152,68.983089 80.470383,68.946329 C 72.586227,68.916829 70.629331,68.881329 70.629331,68.767669 C 70.629331,68.689669 70.822369,67.930129 71.058303,67.079869 C 71.508705,65.456719 71.870477,64.081309 72.130486,63.003579 C 72.215846,62.649749 72.338772,62.330929 72.403646,62.295089 C 72.652589,62.157559 87.799518,62.119209 89.814726,62.250989 C 92.705807,62.440069 94.773375,62.888359 97.032411,63.815919 C 101.05224,65.466449 103.64005,68.618059 104.16715,72.505049 C 104.45064,74.595619 104.09035,76.450559 102.97611,78.636989 C 102.35106,79.863529 100.16323,82.204599 98.925462,82.971359 C 98.419495,83.284789 98.400212,83.460769 98.871832,83.460769 C 99.433274,83.460769 100.9427,84.084679 102.24257,84.854039 C 103.14866,85.390339 104.19047,86.264819 104.7039,86.920079 C 104.80986,87.055309 104.9191,87.143989 104.94665,87.117149 C 104.97415,87.090249 105.08059,86.743659 105.18307,86.346829 C 105.28555,85.949999 105.67514,84.551369 106.04884,83.238769 C 106.70614,80.929969 107.00526,79.821169 107.46788,77.978449 L 107.68774,77.102719 L 110.23763,75.998739 C 111.64007,75.391559 113.61786,74.521509 114.63272,74.065309 C 115.64757,73.609099 116.49981,73.255419 116.52657,73.279349 C 116.57897,73.326149 116.56347,73.387279 115.46731,77.466659 C 113.80435,83.655039 113.59468,84.443169 113.59468,84.505529 C 113.59468,84.614909 125.74757,84.574329 126.95133,84.460929 C 128.94739,84.272879 130.67887,83.761039 132.02914,82.959869 C 134.89695,81.258289 136.23487,78.876039 136.03614,75.825149 C 135.93148,74.218349 135.49077,73.067619 134.58205,72.028429 C 133.24875,70.503699 131.96817,69.807409 129.42729,69.225619 C 128.47899,69.008489 128.00656,68.995989 119.02744,68.950299 C 110.95297,68.909199 109.621,68.879799 109.621,68.742779 C 109.621,68.654979 109.7029,68.296659 109.80299,67.946539 C 109.90308,67.596409 110.18312,66.535709 110.4253,65.589419 C 110.66748,64.643129 110.96277,63.494249 111.08151,63.036369 L 111.2974,62.203849 L 117.25791,62.203849 C 125.67961,62.203849 129.22246,62.302649 130.91742,62.584769 C 138.11701,63.783129 142.7692,67.777209 143.8419,73.680939 C 144.21818,75.751789 143.95629,78.484779 143.20262,80.352459 C 141.95896,83.434359 140.31899,85.439629 137.45589,87.379239 C 136.40737,88.089559 134.04619,89.189619 132.86075,89.520089 C 132.44191,89.636849 132.09895,89.782339 132.09863,89.843389 C 132.0983,89.904389 132.19981,90.104239 132.32422,90.287389 C 133.24174,91.638189 136.58593,97.502939 139.6665,103.16364 C 141.68441,106.87166 142.14325,107.65539 142.88341,108.65825 C 143.83006,109.94091 144.93702,110.87241 146.14098,111.3995 C 146.67154,111.63177 147.10943,111.85927 147.11409,111.90506 C 147.11909,111.95086 146.91301,111.97806 146.65689,111.96546 C 146.40077,111.95286 145.6883,111.92876 145.07363,111.91186 L 145.07365,111.91187 M 88.57297,104.17147 C 92.090257,103.72247 94.280168,102.83629 96.273385,101.05538 C 97.516146,99.944999 97.941441,99.320679 98.580245,97.669009 C 98.968445,96.665289 98.988474,96.534279 98.995979,94.949459 C 99.002379,93.603459 98.960549,93.178259 98.777836,92.730339 C 98.194758,91.300959 97.312299,90.272989 95.97447,89.464709 C 94.838605,88.778459 93.826164,88.430819 91.867911,88.054659 C 90.881768,87.865229 90.838758,87.866129 89.717307,88.099659 C 89.087922,88.230709 88.293571,88.394659 87.952084,88.463989 C 87.54883,88.545889 84.906607,88.609429 80.414064,88.645329 L 73.496931,88.700629 L 73.315809,89.216509 C 73.138338,89.721999 72.962882,90.393819 72.543304,92.174439 C 72.428218,92.662849 72.170388,93.686839 71.97035,94.449979 C 71.770312,95.213119 71.384238,96.761599 71.112408,97.891049 C 70.840578,99.020499 70.483732,100.4441 70.319416,101.05461 C 69.651227,103.53726 69.511752,104.0897 69.511752,104.2537 C 69.511752,104.40731 70.437355,104.42204 78.297297,104.39356 C 85.797649,104.36636 87.300826,104.33386 88.57297,104.1715 L 88.57297,104.17147" transform="matrix(880.6223163111354, 0.0, 0.0, 880.6223163111354, 180912.60572714335, 174612.35564794388)" stroke_scale="True" mktablength="5160.23622047244" mktabpositions="" type="elem path" id="meerk40t:22" label="Copy" lock="False" hidden="False" label_display="False" points_dirty="True" stroke-linecap="butt" stroke-linejoin="miter" fill-rule="nonzero" inkscape:label="Copy" stroke="none" stroke-width="1.3000941343400738" fill="#000000" bounds="233924.70684635037, 229360.39158474118, 310464.6348868682, 273214.35211149027" paint_bounds="233924.70684635037, 229360.39158474118, 310464.6348868682, 273214.35211149027" />
		<text transform="matrix(906.5373247246009, 0.0, 0.0, 812.3020166666561, 232645.54047373647, 273162.48817132175)" font-family="sans-serif" font-style="normal" font-variant="normal" font-stretch="normal" font-size="10.209675" line_height="16.0" dominant-baseline="hanging" text="COLLECTION" baseline="hanging" stroke_scale="True" underline="False" strikethrough="False" overline="False" raw_bbox="(0, 3, 88, 13)" font_style="normal" font_variant="normal" font_weight="normal" font_stretch="normal" font_size="10.209675" font_family="sans-serif" offset_x="0" offset_y="0" type="elem text" id="meerk40t:23" label="Copy" lock="False" hidden="False" label_display="False" bounds_with_variables_translated="False" ascent="12.323396444320679" points_dirty="True" inkscape:label="Copy" stroke="none" stroke-width="0.000396589275929861" fill="#000000" bounds="230832.46582428727, 273974.79018798843, 314233.8996989506, 285347.0184213216" paint_bounds="230832.46582428727, 273974.79018798843, 314233.8996989506, 285347.0184213216">COLLECTION</text>
	</g>
</svg>
